src/lib/packages/icons/src/assets/filled/tool.svg

<svg width="24" height="24" viewBox="0 0 24 24" fill="none" xmlns="http://www.w3.org/2000/svg">
<path d="M20.58 6.56L18.4 8.73999C17.82 9.30999 16.87 9.31001 16.29 8.73001L15.27 7.70999C14.69 7.12999 14.69 6.17998 15.27 5.60998L17.44 3.42001C15.91 2.81001 14.01 2.78998 12.23 3.85998C11.51 4.28998 10.9 4.87001 10.47 5.57001C10.44 5.61001 10.41 5.65001 10.39 5.70001C9.61 6.99001 9.4 8.34 9.58 9.56C9.65 10.02 9.49 10.48 9.16 10.8L3.84 16.13C3.28 16.68 3 17.42 3 18.14C3 18.88 3.28 19.6 3.84 20.16C4.95 21.28 6.75999 21.28 7.87 20.16L13.2 14.84C13.52 14.51 13.98 14.35 14.44 14.42C15.66 14.6 17.01 14.39 18.29 13.62C19.05 13.17 19.69 12.53 20.13 11.78C21.21 10 21.19 8.09 20.58 6.56ZM6.02 19C5.47 19 5.02 18.55 5.02 18C5.02 17.45 5.45999 17 6.00999 17H6.02C6.57 17 7.02 17.45 7.02 18C7.02 18.55 6.57 19 6.02 19Z" fill="currentColor"/>
</svg>

<svg xmlns="http://www.w3.org/2000/svg" width="24" height="24" fill="none"><path fill="currentColor" d="M20.58 6.56 18.4 8.74c-.58.57-1.53.57-2.11-.01l-1.02-1.02c-.58-.58-.58-1.53 0-2.1l2.17-2.19a5.807 5.807 0 0 0-5.21.44c-.72.43-1.33 1.01-1.76 1.71-.03.04-.06.08-.08.13-.78 1.29-.99 2.64-.81 3.86.07.46-.09.92-.42 1.24l-5.32 5.33c-.56.55-.84 1.29-.84 2.01 0 .74.28 1.46.84 2.02a2.837 2.837 0 0 0 4.03 0l5.33-5.32c.32-.33.78-.49 1.24-.42 1.22.18 2.57-.03 3.85-.8a5.23 5.23 0 0 0 1.84-1.84 5.8 5.8 0 0 0 .45-5.22ZM6.02 19c-.55 0-1-.45-1-1s.44-1 .99-1h.01c.55 0 1 .45 1 1s-.45 1-1 1Z"/></svg>
